images/delete.svg

<svg fill="none" height="20" viewBox="0 0 17 20" width="17" xmlns="http://www.w3.org/2000/svg"><g fill="#acacc8"><path d="m14.4857 4.79688h-12.25344c-.66491 0-1.13985.56992-1.04486 1.23484l1.99475 12.53838c.14248.7599.7599 1.3299 1.5673 1.3299h7.36155c.7599 0 1.4248-.57 1.5673-1.3299l1.9948-12.53838c0-.66492-.5225-1.23484-1.1874-1.23484z"/><path d="m16.0055 2.13723h-4.227l-.4274-1.282337c-.19-.522435-.6649-.854893-1.1874-.854893h-3.60952c-.52244 0-.99738.332458-1.18735.854893l-.42745 1.282337h-4.226969c-.379953 0-.712411.28497-.712411.71241 0 .42745.332458.71241.712411.71241h15.293089c.3799 0 .7124-.33246.7124-.71241s-.3325-.71241-.7124-.71241z"/></g></svg>

<svg width="17" height="20" viewBox="0 0 17 20" fill="none" xmlns="http://www.w3.org/2000/svg">
<path d="M14.4857 4.79688H2.23226C1.56735 4.79688 1.09241 5.3668 1.1874 6.03172L3.18215 18.5701C3.32463 19.33 3.94205 19.9 4.74945 19.9H12.111C12.8709 19.9 13.5358 19.33 13.6783 18.5701L15.6731 6.03172C15.6731 5.3668 15.1506 4.79688 14.4857 4.79688Z" fill="#ACACC8"/>
<path d="M16.0055 2.13723H11.7785L11.3511 0.854893C11.1611 0.332458 10.6862 0 10.1637 0H6.55418C6.03174 0 5.5568 0.332458 5.36683 0.854893L4.93938 2.13723H0.712411C0.332458 2.13723 0 2.4222 0 2.84964C0 3.27709 0.332458 3.56205 0.712411 3.56205H16.0055C16.3854 3.56205 16.7179 3.22959 16.7179 2.84964C16.7179 2.46969 16.3854 2.13723 16.0055 2.13723Z" fill="#ACACC8"/>
</svg>
